svgs/light/pen-fancy-slash.svg

<svg xmlns="http://www.w3.org/2000/svg" viewBox="0 0 640 512"><!--! Font Awesome Pro 6.0.0-alpha3 by @fontawesome - https://fontawesome.com License - https://fontawesome.com/license (Commercial License) --><path d="M276.9 417.8c-.125 .625-145.4 49.38-145.4 49.38l59.26-59.38C191.2 407.8 191.6 408 191.1 408c13.25 0 24-10.75 24-24c0-13.26-10.75-24-24-24c-13.25 0-23.1 10.74-23.1 24c0 .373 .1914 .6855 .209 1.055l-59.33 59.45c0 0 48.75-145.4 49.37-145.5l79.4-26.47L207.6 248.8l-59.47 19.85c-10.14 3.387-18.1 11.35-21.49 21.5l-60.61 170.7c-4.658 13.98-1.02 29.39 9.396 39.8C85.81 511 101.2 514.7 115.2 510l170.5-60.63c10.15-3.387 18.11-11.35 21.5-21.5l26.5-79.48L306.9 327.2L276.9 417.8zM449.1 49.88C459.1 38.5 473.6 32 488.9 32c29.12 0 55.87 25.5 54.87 56.63c-.375 14.75-6.75 28.25-18.12 38.38l-123.7 112.1l25.47 20.11l119.8-108.4C608.5 96.38 564.1 0 488.8 0c-23.5 0-46.88 9.625-63.75 28.75L304.4 162.1l25.16 19.86L449.1 49.88zM633.9 483.4l-608-480c-6.938-5.453-17-4.25-22.48 2.641c-5.469 6.938-4.281 17 2.641 22.48l608 480C617 510.9 620.5 512 623.1 512c4.734 0 9.422-2.094 12.58-6.078C642 498.1 640.8 488.9 633.9 483.4z"/></svg>

<svg xmlns="http://www.w3.org/2000/svg" viewBox="0 0 640 512"><!-- Font Awesome Pro 6.0.0-alpha2 by @fontawesome - https://fontawesome.com License - https://fontawesome.com/license (Commercial License) --><path d="M276.862 417.75C276.737 418.375 131.495 467.125 131.495 467.125L190.757 407.75C191.189 407.773 191.554 408 191.991 408C205.245 408 215.991 397.254 215.991 384C215.991 370.744 205.245 360 191.991 360C178.739 360 167.993 370.744 167.993 384C167.993 384.373 168.189 384.686 168.206 385.055L108.872 444.5C108.872 444.5 157.618 299.125 158.243 299L237.644 272.531L207.564 248.781L148.107 268.629C137.962 272.016 130.003 279.979 126.62 290.125L65.995 460.803C61.337 474.779 64.976 490.189 75.392 500.605C85.812 511.025 101.222 514.662 115.2 510L285.737 449.375C295.888 445.988 303.853 438.021 307.237 427.869L333.728 348.395L306.942 327.244L276.862 417.75ZM449.103 49.875C459.103 38.5 473.601 32 488.851 32C517.974 32 544.722 57.5 543.722 88.625C543.347 103.375 536.972 116.875 525.599 127L401.851 239.076L427.325 259.188L547.097 150.75C608.468 96.375 564.095 0 488.851 0C465.351 0 441.978 9.625 425.105 28.75L304.374 162.113L329.532 181.977L449.103 49.875ZM633.921 483.436L25.921 3.42C18.984 -2.033 8.921 -0.83 3.437 6.061C-2.032 12.998 -0.845 23.061 6.077 28.545L614.077 508.562C617.015 510.875 620.515 512 623.984 512C628.718 512 633.405 509.906 636.562 505.922C642.03 498.984 640.843 488.92 633.921 483.436Z"/></svg>
